!!!!SEGMENT: Ric2026-Ave_maria
!!!id: Ric2026
!!!AGN: Motet
!!!voices: 5
!!!COM: Jean Richafort
!!!OTL: Ave maria
**kern	**kern	**kern	**kern	**kern
*part5	*part4	*part3	*part2	*part1
*staff5	*staff4	*staff3	*staff2	*staff1
*I"Bassus	*I"Tenor II	*I"Tenor I	*I"Altus	*I"Superius
*I'B.	*I'T. II	*I'T. I	*I'A.	*I'S.
*clefF4	*clefGv2	*clefGv2	*clefG2	*clefG2
*k[b-]	*k[b-]	*k[b-]	*k[b-]	*k[b-]
*M2/1	*M2/1	*M2/1	*M2/1	*M2/1
*met(C|)	*met(C|)	*met(C|)	*met(C|)	*met(C|)
=1	=1	=1	=1	=1
!!section: Prima pars: Gratia plena
!!!OMD: Prima pars: Gratia plena
0r	1r	1.d	0a	0r
.	[1d	.	.	.
.	.	2c	.	.
=2	=2	=2	=2	=2
0r	1d]	1B-y	1g	0r
.	1c	1A	1f	.
=3	=3	=3	=3	=3
0r	1.B-y	1.G	1g	0dd
.	.	.	2d	.
.	4A	2D	[2f	.
.	4G	.	.	.
=4	=4	=4	=4	=4
0r	1A	1F	4f]	1cc
.	.	.	4e	.
.	.	.	1a	.
.	2r	1G	.	1b-y
.	2d	.	2g	.
=5	=5	=5	=5	=5
0A	4c	2r	0a	0cc
.	4B-y	.	.	.
.	4A	2.F	.	.
.	4G	.	.	.
.	2F	.	.	.
.	.	4G	.	.
.	[2c	4A	.	.
.	.	8GL	.	.
.	.	8AJ	.	.
=6	=6	=6	=6	=6
1G	4c]	1B-y	1r	1dd
.	4B-y	.	.	.
.	1B-y	.	.	.
1F	.	1c	1a	[1ff
.	2A	.	.	.
=7	=7	=7	=7	=7
0B-y	2.B-y	1.d	1f	2ff]
.	.	.	.	2ee
.	4c	.	.	.
.	2d	.	1g	[1dd
.	2G	8dL	.	.
.	.	8c	.	.
.	.	8d	.	.
.	.	8eJ	.	.
=8	=8	=8	=8	=8
0A	1.c	1f	0a	1dd]
.	.	1e	.	1cc#i
.	2A	.	.	.
=9	=9	=9	=9	=9
0D;	0A;	0d;	0a;	0dd;
=10	=10	=10	=10	=10
1.G	1.B-y	1.d	1.g	0dd
2G	2B-y	2d	2g	.
=11	=11	=11	=11	=11
2E	2G	1e	1g	1cc
2C	2A	.	.	.
1G	4B-y	1d	1g	1b-y
.	4A	.	.	.
.	4G	.	.	.
.	4F	.	.	.
=12	=12	=12	=12	=12
0C	2G	1c	1e	1cc
.	2.c	.	.	.
.	.	1r	2.c	2g
.	4B-y	.	.	.
.	4A	.	.	[2cc
.	4G	.	4B-y	.
=13	=13	=13	=13	=13
0r	2F	2r	4A	4cc]
.	.	.	4G	4b-y
.	2F	1d	1g	4b-y
.	.	.	.	8aL
.	.	.	.	8gJ
.	1D	.	.	1a
.	.	2d	2f#i	.
=14	=14	=14	=14	=14
1.G	2.d	2B-y	1g	[0g
.	.	2G	.	.
.	4c	.	.	.
.	4B-y	1d	2r	.
.	4A	.	.	.
2G	[2G	.	[2g	.
=15	=15	=15	=15	=15
2E	2G]	[0G	2g]	0g_
2C	1c	.	4f	.
.	.	.	4e	.
1G	.	.	1d	.
.	2BnXi	.	.	.
=16	=16	=16	=16	=16
0C;	0c;	0G;]	0e;	0g;]
=17	=17	=17	=17	=17
0r	1.c	0r	1g	0cc
.	.	.	2g	.
.	2B-y	.	2g	.
=18	=18	=18	=18	=18
0r	2A	0r	1a	1cc
.	2F	.	.	.
.	2.B-y	.	[1f	1dd
.	8AL	.	.	.
.	8B-yJ	.	.	.
=19	=19	=19	=19	=19
1.F	2A	1.c	1f]	2.cc
.	2F	.	.	.
.	.	.	.	4b-y
.	2r	.	1r	2a
2E	2G	2c	.	2g
=20	=20	=20	=20	=20
2D	2A	1d	1r	2f
2BB-y	2B-y	.	.	1b-y
2.F	2c	1c	1f	.
.	[2F	.	.	2a
4E	.	.	.	.
=21	=21	=21	=21	=21
2D	2F]	1B-y	2f	1b-y
2BB-y	1B-y	.	2f	.
1C	.	1r	2e	1r
.	2A	.	2e	.
=22	=22	=22	=22	=22
1BB-y	2B-y	2r	2.d	2r
.	2F	2B-y	.	2ff
.	.	.	4e	.
1r	2.F	2.A	4f	2ff
.	.	.	4g	.
.	.	.	[2a	2ff
.	4G	4B-y	.	.
=23	=23	=23	=23	=23
0r	2A	2c	4a]	2ee
.	.	.	4g	.
.	2B-y	2d	4g	2dd
.	.	.	4f	.
.	1A	2e	[1a	4cc
.	.	.	.	4b-y
.	.	[2f	.	4a
.	.	.	.	4g
=24	=24	=24	=24	=24
2r	1D	4f]	1a]	2f
.	.	4e	.	.
2D	.	2d	.	2.ff
2.F	1r	2c	2r	.
.	.	.	.	4ee
.	.	2f	2a	2dd
4G	.	.	.	.
=25	=25	=25	=25	=25
2A	2r	2e	2a	2cc
2B-y	2G	2d	2g	1dd
1A	2.c	1e	1a	.
.	.	.	.	2cc#i
.	4B-y	.	.	.
=26	=26	=26	=26	=26
2F	2A	[0d	2a	[0dd
1G	2G	.	1b-y	.
.	[1B-y	.	.	.
4F	.	.	4a	.
4E	.	.	4g	.
=27	=27	=27	=27	=27
[0D	2B-]	0d_	[0f	0dd_
.	4A	.	.	.
.	4G	.	.	.
.	2A	.	.	.
.	2B-y	.	.	.
=28	=28	=28	=28	=28
0D;]	0A;	0d;]	0f;]	0dd;]
=29	=29	=29	=29	=29
1G	1B-y	1d	1g	1b-y
2G	2B-y	2d	2g	2b-y
2G	2B-y	2d	2g	2b-y
=30	=30	=30	=30	=30
1C	1G	1e	1g	1cc
1G	[1B-y	[1d	2g	[1dd
.	.	.	4G	.
.	.	.	4A	.
=31	=31	=31	=31	=31
0r	2B-]	1d]	4B-y	2dd]
.	.	.	4c	.
.	4A	.	4d	4cc
.	4G	.	4e	4b-y
.	2.F	1r	4f	4a
.	.	.	4g	4g
.	.	.	[2a	[2cc
.	4E	.	.	.
=32	=32	=32	=32	=32
1r	2F	1r	4a]	4cc]
.	.	.	4g	4b-y
.	2G	.	1g	4b-y
.	.	.	.	8aL
.	.	.	.	8gJ
2r	2D	2r	.	2a
2D	2d	2A	2f#i	2dd
=33	=33	=33	=33	=33
2G	2d	2B-y	[0g	2b-y
2G	2d	2B-y	.	2g
1C	1e	4G	.	1cc
.	.	4F	.	.
.	.	4G	.	.
.	.	4A	.	.
=34	=34	=34	=34	=34
0G;	0d;	0B-y;	0g;]	0b-y;
=35	=35	=35	=35	=35
1G	1d	1B-y	1g	1b-y
2G	2d	2B-y	2g	2b-y
2G	2B-y	2G	2d	2b-y
=36	=36	=36	=36	=36
1F	2c	4A	1f	1a
.	.	4G	.	.
.	2F	4A	.	.
.	.	4B-y	.	.
1C	4G	2c	1e	1g
.	4F	.	.	.
.	4G	2c	.	.
.	4A	.	.	.
=37	=37	=37	=37	=37
1D	4B-y	0F	2d	2f
.	4G	.	.	.
.	2A	.	2d	2d
2r	2D	.	2d	1f
2D	[2d	.	2d	.
=38	=38	=38	=38	=38
4E	2d]	1r	2G	1e
4D	.	.	.	.
4E	2c	.	1g	.
4F	.	.	.	.
2G	2B-y	2r	.	2d
2A	2c	2A	2c	4a
.	.	.	.	4b-y
=39	=39	=39	=39	=39
2F	4c	2A	1f	4cc
.	4F	.	.	4a
2D	2F	2B-y	.	1dd
1A	2r	1c	2e	.
.	2A	.	[2a	2cc#i
=40	=40	=40	=40	=40
2r	2.d	2r	4a]	1dd
.	.	.	4g	.
2D	.	2A	4f	.
.	4c	.	4e	.
2D	2B-y	2.d	2f	2r
2D	4A	.	2f	2a
.	4G	4c	.	.
=41	=41	=41	=41	=41
4D	1F	2B-y	2f	2.dd
4E	.	.	.	.
4F	.	2A	2f	.
4E	.	.	.	4cc
2G	2r	2.d	2B-y	2b-y
2F	2A	.	2f	[2a
.	.	4c	.	.
=42	=42	=42	=42	=42
1G	2.B-y	2B-y	2e	4a]
.	.	.	.	4g
.	.	4A	2.d	1g
.	4c	4G	.	.
1D	1d	1A	.	.
.	.	.	4c	.
.	.	.	2A	2f#i
=43	=43	=43	=43	=43
1GG	2r	[0Gl	0B-y	[0gl
.	2D	.	.	.
2r	2.G	.	.	.
2GG	.	.	.	.
.	4F	.	.	.
=44	=44	=44	=44	=44
2.C	2E	0G_	2r	0g_
.	2D	.	2G	.
4BB-y	.	.	.	.
1C	1E	.	2c	.
.	.	.	2c	.
=45	=45	=45	=45	=45
0GGl	0Gl	0G]	0B-yl	0g]
==	==	==	==	==
*-	*-	*-	*-	*-
!!!system-decoration: s1,s2,s3,s4,s5
!!!RDF**kern: i = editorial accidental
!!!RDF**kern: l = terminal long
!!!ENC: Janosch Umbreit
!!!END: 2026/02/06
!!!EED: Benjamin Ory
!!!EEV: 2026/02/10
!!!YEC: Copyright 2026 Benjamin Ory, All Rights Reserved
!!!ONB: Translated from MusicXML on 2026/02/10
